contributed-vectors/atmosphere.svg

<svg xmlns="http://www.w3.org/2000/svg" width="192" height="192" fill="none"><g clip-path="url(#a)"><path fill="#54688C" fill-rule="evenodd" d="M30 19h133c5.5 0 10 4.5 10 10v133c0 5.5-4.5 10-10 10H30c-5.5 0-10-4.5-10-10V29c0-5.5 4.5-10 10-10Z" clip-rule="evenodd"/><path fill="#fff" d="M111.9 112.4c-3.4 0-6.7 0-10.1-.1 0-12.9-9.9-22.4-23.7-23.1v-10c8 .3 15.1 2.9 20.7 7.1 3.1 2.3 9 7.8 11.7 16.8.4 1.4.7 2.9.7 2.9.6 2.6.7 4.8.7 6.4ZM93.7 123.2c-1.2 0-1.9-1.5-1.9-4.1v-6.7c0-8-6.2-13.1-15.4-13.1S61 103.9 61 110.9h10c0-2.5 2.2-4 5.3-4 3.1 0 5.4 1.7 5.4 4.5v2.4H70.9c-6 0-9.9 3.6-9.9 9.2 0 5.5 4.6 9.1 11.6 9.1 4.6 0 8.7-1.7 11.1-4.4 1.8 2.8 4.8 4.4 8.6 4.4.9 0 2.1-.3 3.1-.6v-8.2h-1.7v-.1Zm-18.3 2c-2.6 0-4.3-1-4.3-2.7 0-1.7 1.3-2.8 3.2-2.8h7.3c-.3 3.4-2.7 5.5-6.2 5.5Z"/><path fill="#fff" d="M131.1 102.1s-.5-2.5-1.2-4.8c-4.3-14.6-13.8-23.3-19-27.2-9-6.7-20.1-10.5-31.9-11h-.9v10.1h.4c9.8.4 18.9 3.5 26.3 9.1 4.2 3.2 11.9 10.2 15.4 22 .6 1.9.9 3.8.9 3.8.5 2.8.8 5.6.8 8.4H132c.1-3.5-.2-7-.9-10.4Z"/></g><defs><clipPath id="a"><path fill="#fff" d="M0 0h192v192H0z"/></clipPath></defs></svg>

<svg width="192" height="192" viewBox="0 0 192 192" fill="none" xmlns="http://www.w3.org/2000/svg">
<g clip-path="url(#clip0)">
<path fill-rule="evenodd" clip-rule="evenodd" d="M30 19H163C168.5 19 173 23.5 173 29V162C173 167.5 168.5 172 163 172H30C24.5 172 20 167.5 20 162V29C20 23.5 24.5 19 30 19Z" fill="#54688C"/>
<path d="M111.9 112.4C108.5 112.4 105.2 112.4 101.8 112.3C101.8 99.4 91.9 89.8999 78.1 89.1999V79.2C86.1 79.5 93.2 82.1 98.8 86.3C101.9 88.6 107.8 94.0999 110.5 103.1C110.9 104.5 111.2 106 111.2 106C111.8 108.6 111.9 110.8 111.9 112.4Z" fill="white"/>
<path d="M93.7 123.2C92.5 123.2 91.8 121.7 91.8 119.1V112.4C91.8 104.4 85.6 99.3 76.4 99.3C67.2 99.3 61 103.9 61 110.9H71C71 108.4 73.2 106.9 76.3 106.9C79.4 106.9 81.7 108.6 81.7 111.4V113.8H70.9C64.9 113.8 61 117.4 61 123C61 128.5 65.6 132.1 72.6 132.1C77.2 132.1 81.3 130.4 83.7 127.7C85.5 130.5 88.5 132.1 92.3 132.1C93.2 132.1 94.4 131.8 95.4 131.5V123.3H93.7V123.2ZM75.4 125.2C72.8 125.2 71.1 124.2 71.1 122.5C71.1 120.8 72.4 119.7 74.3 119.7H81.6C81.3 123.1 78.9 125.2 75.4 125.2Z" fill="white"/>
<path d="M131.1 102.1C131.1 102.1 130.6 99.6 129.9 97.3C125.6 82.7 116.1 74 110.9 70.1C101.9 63.4 90.8 59.6 79 59.1H78.1V69.2H78.5C88.3 69.6 97.4 72.7 104.8 78.3C109 81.5 116.7 88.5 120.2 100.3C120.8 102.2 121.1 104.1 121.1 104.1C121.6 106.9 121.9 109.7 121.9 112.5H132C132.1 109 131.8 105.5 131.1 102.1Z" fill="white"/>
</g>
<defs>
<clipPath id="clip0">
<rect width="192" height="192" fill="white"/>
</clipPath>
</defs>
</svg>
